svg/emoji_u1f9b8_1f3fb_200d_2640.svg

<?xml version="1.0" encoding="UTF-8" standalone="no"?>
<svg
   xmlns:dc="http://purl.org/dc/elements/1.1/"
   xmlns:cc="http://creativecommons.org/ns#"
   xmlns:rdf="http://www.w3.org/1999/02/22-rdf-syntax-ns#"
   xmlns:svg="http://www.w3.org/2000/svg"
   xmlns="http://www.w3.org/2000/svg"
   xmlns:sodipodi="http://sodipodi.sourceforge.net/DTD/sodipodi-0.dtd"
   xmlns:inkscape="http://www.inkscape.org/namespaces/inkscape"
   width="128"
   height="128"
   style="enable-background:new 0 0 128 128;"
   version="1.1"
   id="svg2295"
   sodipodi:docname="emoji_u1f9b8_200d_2640.svg"
   inkscape:version="0.92.3 (2405546, 2018-03-11)">
  <metadata
     id="metadata2301">
    <rdf:RDF>
      <cc:Work
         rdf:about="">
        <dc:format>image/svg+xml</dc:format>
        <dc:type
           rdf:resource="http://purl.org/dc/dcmitype/StillImage" />
        <dc:title></dc:title>
      </cc:Work>
    </rdf:RDF>
  </metadata>
  <defs
     id="defs2299" />
  <sodipodi:namedview
     pagecolor="#ffffff"
     bordercolor="#666666"
     borderopacity="1"
     objecttolerance="10"
     gridtolerance="10"
     guidetolerance="10"
     inkscape:pageopacity="0"
     inkscape:pageshadow="2"
     inkscape:window-width="1218"
     inkscape:window-height="704"
     id="namedview2297"
     showgrid="false"
     inkscape:zoom="7.375"
     inkscape:cx="78.679639"
     inkscape:cy="63.178223"
     inkscape:window-x="640"
     inkscape:window-y="327"
     inkscape:window-maximized="0"
     inkscape:current-layer="svg2295" />
  <ellipse
     style="fill:212121"
     ry="50.299999"
     rx="54.5"
     cy="56.060001"
     cx="64"
     id="XMLID_201_" />
  <path
     inkscape:connector-curvature="0"
     style="fill:#fadcbc"
     d="m 64.17,14.87 c -33.11,0 -42.95,23.36 -42.95,58.91 0,35.56 26.86,48.36 42.95,48.36 16.09,0 42.61,-13.14 42.61,-48.69 0,-35.56 -9.5,-58.58 -42.61,-58.58 z"
     id="XMLID_200_" />
  <path
     inkscape:connector-curvature="0"
     style="fill:212121"
     d="m 76.46,42.76 c -4.34,4.17 -25.9,23.6 -55.62,28.68 V 31.6 c 0,0 12.83,-25.45 43.61,-25.45 30.78,0 43.61,26.09 43.61,26.09 v 39.2 c 0,0 -20.17,-7.74 -30.3,-28.43 -0.25,-0.51 -0.9,-0.64 -1.3,-0.25 z"
     id="XMLID_194_" />
  <path
     inkscape:connector-curvature="0"
     style="fill:#513f35"
     d="m 76.38,100.52 c -1.73,0 -12.38,0 -12.38,0 0,0 -10.65,0 -12.38,0 -1.42,0 -2.03,0.95 -1.09,2.38 1.31,2 6.19,5.85 13.47,5.85 7.28,0 12.16,-3.85 13.47,-5.85 0.94,-1.43 0.33,-2.38 -1.09,-2.38 z"
     id="XMLID_192_" />
  <path
     inkscape:connector-curvature="0"
     style="fill:#dba689"
     d="m 69.98,89.99 c -2.11,0.6 -4.29,0.89 -5.98,0.89 -1.69,0 -3.87,-0.29 -5.98,-0.89 -0.9,-0.26 -1.25,0.6 -0.93,1.17 0.67,1.18 3.36,3.55 6.91,3.55 3.55,0 6.24,-2.37 6.91,-3.55 0.33,-0.57 -0.03,-1.42 -0.93,-1.17 z"
     id="XMLID_160_" />
  <g
     id="XMLID_816_">
    <path
       inkscape:connector-curvature="0"
       style="fill:#444444"
       d="m 49.91,77.19 c 0,3.81 -2.55,6.9 -5.71,6.9 -3.16,0 -5.73,-3.09 -5.73,-6.9 0,-3.82 2.57,-6.91 5.73,-6.91 3.16,0 5.71,3.09 5.71,6.91"
       id="XMLID_806_" />
    <path
       inkscape:connector-curvature="0"
       style="fill:#444444"
       d="m 78.08,77.19 c 0,3.81 2.56,6.9 5.72,6.9 3.15,0 5.72,-3.09 5.72,-6.9 0,-3.82 -2.57,-6.91 -5.72,-6.91 -3.16,0 -5.72,3.09 -5.72,6.91"
       id="XMLID_803_" />
    <path
       inkscape:connector-curvature="0"
       style="fill:#513f35"
       d="m 76.38,100.52 c -1.73,0 -12.38,0 -12.38,0 0,0 -10.65,0 -12.38,0 -1.42,0 -2.03,0.95 -1.09,2.38 1.31,2 6.19,5.85 13.47,5.85 7.28,0 12.16,-3.85 13.47,-5.85 0.94,-1.43 0.33,-2.38 -1.09,-2.38 z"
       id="XMLID_798_" />
    <path
       inkscape:connector-curvature="0"
       style="fill:#dba689"
       d="m 69.98,89.99 c -2.11,0.6 -4.29,0.89 -5.98,0.89 -1.69,0 -3.87,-0.29 -5.98,-0.89 -0.9,-0.26 -1.25,0.6 -0.93,1.17 0.67,1.18 3.36,3.55 6.91,3.55 3.55,0 6.24,-2.37 6.91,-3.55 0.33,-0.57 -0.03,-1.42 -0.93,-1.17 z"
       id="XMLID_793_" />
  </g>
  <path
     inkscape:connector-curvature="0"
     style="fill:#00cd00;fill-opacity:0.87860084;stroke:none;stroke-width:0.99999994px;stroke-linecap:butt;stroke-linejoin:miter;stroke-opacity:1"
     d="m 40.321583,67.692944 c -7.355123,0 -17.827557,3.152197 -17.827557,3.152197 -1.507203,1.270587 -2.651058,2.590057 -3.427193,3.958715 0.06705,3.665407 0.350664,7.077316 0.831145,10.24669 0.428307,0.06169 10.868694,1.555576 18.073824,1.555576 8.708387,0.164599 18.270638,-3.102943 25.428947,-3.102943 h 2.877201 c 7.15831,0 16.72056,3.267542 25.428946,3.102943 5.483886,0 12.898814,-0.873762 16.327404,-1.319571 0.5745,-3.711747 0.89887,-7.736726 0.89887,-12.140882 0,-0.3576 -0.006,-0.707359 -0.008,-1.063045 -0.48602,-0.460777 -1.06132,-0.876313 -1.74027,-1.237483 0,0 -10.472442,-3.152197 -17.827567,-3.152197 -9.400761,0.445812 -16.219879,4.309644 -24.517763,4.309644 -8.297883,0 -15.117001,-3.863832 -24.517766,-4.309644 z"
     id="path867" />
  <path
     inkscape:connector-curvature="0"
     style="fill:#444444"
     d="m 49.91,77.19 c 0,3.81 -2.55,6.9 -5.71,6.9 -3.16,0 -5.73,-3.09 -5.73,-6.9 0,-3.82 2.57,-6.91 5.73,-6.91 3.16,0 5.71,3.09 5.71,6.91"
     id="XMLID_196_" />
  <path
     inkscape:connector-curvature="0"
     style="fill:#444444"
     d="m 78.08,77.19 c 0,3.81 2.56,6.9 5.72,6.9 3.15,0 5.72,-3.09 5.72,-6.9 0,-3.82 -2.57,-6.91 -5.72,-6.91 -3.16,0 -5.72,3.09 -5.72,6.91"
     id="XMLID_195_" />
  <path
     inkscape:connector-curvature="0"
     style="fill:212121"
     d="m 76.46,42.76 c -4.34,4.17 -25.9,23.6 -55.62,28.68 V 31.6 c 0,0 12.83,-25.45 43.61,-25.45 30.78,0 43.61,26.09 43.61,26.09 v 39.2 c 0,0 -20.17,-7.74 -30.3,-28.43 -0.25,-0.51 -0.9,-0.64 -1.3,-0.25 z"
     id="XMLID_802_" />
  <path
     style="fill:212121"
     d="M 22.330078 55.267578 L 9.5 55.800781 C 9.5 55.800781 9.2301562 81.580625 12.660156 104.64062 C 15.210156 121.79062 15.649609 124.50938 27.849609 123.10938 C 37.943033 121.9514 45.078016 120.65495 51.146484 119.74805 C 36.664489 114.61488 21.220703 100.74454 21.220703 73.779297 C 21.220703 67.161442 21.561446 60.968506 22.330078 55.267578 z M 105.73633 55.271484 C 106.45784 60.871038 106.7793 66.947067 106.7793 73.449219 C 106.7793 100.51752 91.405955 114.5839 76.966797 119.75977 C 83.013845 120.66695 90.123262 121.95835 100.15039 123.10938 C 112.35039 124.50938 112.78984 121.79063 115.33984 104.64062 C 118.76984 81.580625 118.5 55.800781 118.5 55.800781 L 105.73633 55.271484 z "
     id="path2896" />
</svg>

<svg xmlns="http://www.w3.org/2000/svg" width="128" height="128"><ellipse ry="50.3" rx="54.5" cy="56.06" cx="64" fill="212121"/><path d="M64.17 14.87c-33.11 0-42.95 23.36-42.95 58.91 0 35.56 26.86 48.36 42.95 48.36 16.09 0 42.61-13.14 42.61-48.69 0-35.56-9.5-58.58-42.61-58.58z" fill="#fadcbc"/><path d="M76.46 42.76c-4.34 4.17-25.9 23.6-55.62 28.68V31.6S33.67 6.15 64.45 6.15s43.61 26.09 43.61 26.09v39.2s-20.17-7.74-30.3-28.43c-.25-.51-.9-.64-1.3-.25z" fill="212121"/><path d="M76.38 100.52H64 51.62c-1.42 0-2.03.95-1.09 2.38 1.31 2 6.19 5.85 13.47 5.85s12.16-3.85 13.47-5.85c.94-1.43.33-2.38-1.09-2.38z" fill="#513f35"/><path d="M69.98 89.99c-2.11.6-4.29.89-5.98.89-1.69 0-3.87-.29-5.98-.89-.9-.26-1.25.6-.93 1.17.67 1.18 3.36 3.55 6.91 3.55 3.55 0 6.24-2.37 6.91-3.55.33-.57-.03-1.42-.93-1.17z" fill="#dba689"/><path d="M49.91 77.19c0 3.81-2.55 6.9-5.71 6.9s-5.73-3.09-5.73-6.9c0-3.82 2.57-6.91 5.73-6.91 3.16 0 5.71 3.09 5.71 6.91M78.08 77.19c0 3.81 2.56 6.9 5.72 6.9 3.15 0 5.72-3.09 5.72-6.9 0-3.82-2.57-6.91-5.72-6.91-3.16 0-5.72 3.09-5.72 6.91" fill="#444"/><path d="M76.38 100.52H64 51.62c-1.42 0-2.03.95-1.09 2.38 1.31 2 6.19 5.85 13.47 5.85s12.16-3.85 13.47-5.85c.94-1.43.33-2.38-1.09-2.38z" fill="#513f35"/><path d="M69.98 89.99c-2.11.6-4.29.89-5.98.89-1.69 0-3.87-.29-5.98-.89-.9-.26-1.25.6-.93 1.17.67 1.18 3.36 3.55 6.91 3.55 3.55 0 6.24-2.37 6.91-3.55.33-.57-.03-1.42-.93-1.17z" fill="#dba689"/><path d="M40.322 67.693c-7.356 0-17.828 3.152-17.828 3.152-1.507 1.27-2.651 2.59-3.427 3.959.067 3.665.35 7.077.831 10.247.428.061 10.869 1.555 18.074 1.555 8.708.165 18.27-3.103 25.429-3.103h2.877c7.158 0 16.72 3.268 25.429 3.103 5.484 0 12.899-.874 16.327-1.32.575-3.711.9-7.736.9-12.14 0-.358-.007-.708-.009-1.063a7.903 7.903 0 0 0-1.74-1.238s-10.473-3.152-17.828-3.152c-9.4.446-16.22 4.31-24.517 4.31-8.298 0-15.117-3.864-24.518-4.31z" fill="#00cd00" fill-opacity=".879"/><path d="M49.91 77.19c0 3.81-2.55 6.9-5.71 6.9s-5.73-3.09-5.73-6.9c0-3.82 2.57-6.91 5.73-6.91 3.16 0 5.71 3.09 5.71 6.91M78.08 77.19c0 3.81 2.56 6.9 5.72 6.9 3.15 0 5.72-3.09 5.72-6.9 0-3.82-2.57-6.91-5.72-6.91-3.16 0-5.72 3.09-5.72 6.91" fill="#444"/><path d="M76.46 42.76c-4.34 4.17-25.9 23.6-55.62 28.68V31.6S33.67 6.15 64.45 6.15s43.61 26.09 43.61 26.09v39.2s-20.17-7.74-30.3-28.43c-.25-.51-.9-.64-1.3-.25z" fill="212121"/><path d="M22.33 55.268L9.5 55.8s-.27 25.78 3.16 48.84c2.55 17.15 2.99 19.868 15.19 18.468 10.093-1.158 17.228-2.454 23.296-3.36-14.482-5.134-29.925-19.004-29.925-45.97 0-6.618.34-12.81 1.11-18.511zm83.406.003c.722 5.6 1.043 11.676 1.043 18.178 0 27.069-15.373 41.135-29.812 46.31 6.047.908 13.156 2.2 23.183 3.35 12.2 1.4 12.64-1.318 15.19-18.468 3.43-23.06 3.16-48.84 3.16-48.84l-12.764-.53z" fill="212121"/></svg>
